build/assets/images/proyectos/logos/logo-museo-nacional-centro-de-arte-reina-sofia.svg

<svg width="200" height="200" viewBox="0 0 200 200" fill="none" xmlns="http://www.w3.org/2000/svg">
<rect width="200" height="200" fill="white"/>
<path fill-rule="evenodd" clip-rule="evenodd" d="M33.727 103.017H166.063V68.8203H33.727V103.017ZM166.063 106.744H33.727V131.273H166.063V106.744ZM30.0232 65.0931H169.79V134.977H30.0232V65.0931V65.0931Z" fill="black"/>
<path fill-rule="evenodd" clip-rule="evenodd" d="M114.303 122.258C114.303 119.486 112.952 118.275 110.087 117.366C108.875 116.97 107.384 116.621 107.384 115.666C107.384 114.874 107.874 114.524 108.596 114.524H109.015C109.83 114.524 110.459 114.967 110.902 115.805L111.391 115.875L113.93 114.175L113.977 113.639C113.651 113.103 113.255 112.591 112.812 112.218C111.857 111.379 110.576 110.913 108.992 110.913H108.619C105.265 110.913 103.261 112.73 103.261 115.805C103.261 118.554 104.729 119.626 107.338 120.534C108.968 121.093 110.203 121.256 110.203 122.351C110.203 123.073 109.714 123.492 108.968 123.492H108.2C107.384 123.492 106.755 123.05 106.313 122.211L105.824 122.141L103.285 123.842L103.238 124.354C103.494 124.82 103.82 125.24 104.216 125.612C105.195 126.567 106.569 127.126 108.246 127.126H108.992C112.393 127.126 114.303 125.309 114.303 122.258ZM146.589 126.567V111.449L146.31 111.193H142.722L142.513 111.449V126.567L142.722 126.824H146.31L146.589 126.567ZM140.812 114.617V111.449L140.579 111.193H130.399L130.19 111.449V126.567L130.399 126.824H134.01L134.266 126.567V121L134.546 120.72H139.484L139.717 120.511V117.319L139.484 117.086H134.546L134.266 116.807V115.106L134.546 114.827H140.556L140.812 114.617ZM155.907 121.466L155.697 121.676H154.276L154.043 121.466L154.486 119.532C154.835 118.065 154.998 116.481 154.998 116.481H155.068C155.068 116.481 155.231 118.065 155.534 119.532L155.907 121.466ZM161.637 126.497L156.536 111.379L156.326 111.216H153.671L153.414 111.379L148.29 126.497L148.523 126.824H152.296L152.506 126.661L153.158 124.797L153.461 124.634H156.396L156.722 124.797L157.351 126.661L157.561 126.824H161.404L161.637 126.497ZM84.02 126.521V111.449L83.7871 111.193H80.3395L80.1298 111.449V115.456C80.1298 117.646 80.2463 119.579 80.2463 119.579H80.1764C80.1764 119.579 79.9901 119.043 79.6406 118.391L76.03 111.426L75.7039 111.193H72.6057L72.396 111.449V126.521L72.6057 126.754H76.1232L76.3561 126.521V122.584C76.3561 120.557 76.2163 118.601 76.2163 118.601H76.3095C76.3095 118.601 76.4959 119.136 76.822 119.719L80.456 126.521L80.7355 126.73H83.7871L84.02 126.521ZM70.02 126.521V111.449L69.7405 111.193H66.1531L65.9435 111.449V126.521L66.1531 126.754H69.7405L70.02 126.521ZM124.203 122.491C124.203 123.073 123.76 123.492 123.015 123.492H121.315C120.453 123.492 120.01 123.096 120.01 122.491V115.549C120.01 115.037 120.592 114.501 121.315 114.501H123.015C123.714 114.501 124.203 114.943 124.203 115.549V122.491ZM128.256 122.491V115.549C128.256 112.73 126.136 110.913 123.015 110.913H121.315C118.193 110.913 116.027 112.754 116.027 115.549V122.491C116.027 125.286 118.146 127.126 121.315 127.126H123.015C126.136 127.126 128.256 125.286 128.256 122.491ZM93.2213 121.443L93.0117 121.652H91.5907L91.3578 121.443L91.8004 119.509C92.1498 118.065 92.3129 116.481 92.3129 116.481H92.3827C92.3827 116.481 92.5458 118.065 92.8486 119.509L93.2213 121.443ZM98.9518 126.451L93.8503 111.379L93.6406 111.216H90.9851L90.7521 111.379L85.6506 126.451L85.8836 126.777H89.634L89.8436 126.614L90.4959 124.75L90.7987 124.587H93.7338L94.0599 124.75L94.6889 126.614L94.8985 126.777H98.7188L98.9518 126.451ZM63.5907 126.521V123.353L63.3578 123.143H57.3478L57.045 122.864V120.953L57.3478 120.674H62.2862L62.5425 120.464V117.273L62.2862 117.04H57.3478L57.045 116.76V115.06L57.3478 114.78H63.3578L63.5907 114.571V111.403L63.3578 111.146H53.2014L52.9917 111.403V126.474L53.2014 126.707H63.3578L63.5907 126.521ZM50.9651 126.451L48.5658 120.255L48.6822 119.719C49.7538 119.02 50.4526 117.832 50.4526 116.318V116.085C50.4526 113.057 48.4027 111.193 45.2114 111.193H38.4094L38.1997 111.449V126.521L38.4094 126.754H42.02L42.253 126.521V120.953L42.5558 120.674H44.233L44.4426 120.837L46.6789 126.567L46.8886 126.73H50.7322L50.9651 126.451ZM46.446 116.341C46.446 117.017 45.9801 117.319 45.2346 117.319H42.5558L42.253 117.04V115.083L42.5558 114.804H45.2114C46.0267 114.804 46.4227 115.176 46.4227 115.852V116.341H46.446Z" fill="black"/>
<path fill-rule="evenodd" clip-rule="evenodd" d="M115.002 84.4043H113.814C111.694 84.4043 110.343 83.1697 110.343 81.3294V76.3677C110.343 74.5274 111.717 73.2928 113.814 73.2928H115.002C117.075 73.2928 118.426 74.5274 118.426 76.3677V77.0898H116.073V76.3677C116.073 75.7853 115.607 75.3893 115.002 75.3893H113.814C113.231 75.3893 112.672 75.8319 112.672 76.3677V81.3061C112.672 81.9118 113.138 82.2612 113.814 82.2612H115.002C115.631 82.2612 116.073 81.8652 116.073 81.3061V80.6073H118.426V81.3294C118.426 83.1464 117.075 84.4043 115.002 84.4043ZM105.684 73.5258L109.201 84.1947H106.662L106.243 82.8902L105.8 82.6106H103.751L103.331 82.8902L102.889 84.1947H100.396L103.914 73.5258H105.684V73.5258ZM105.451 80.6073L105.311 80.7704H104.31L104.147 80.6073L104.449 79.2329C104.682 78.1847 104.799 77.0665 104.799 77.0665H104.845C104.845 77.0665 104.962 78.208 105.171 79.2329L105.451 80.6073ZM129.258 84.4276H128.07C125.95 84.4276 124.599 83.193 124.599 81.3527V76.391C124.599 74.5507 125.973 73.3161 128.07 73.3161H129.258C131.331 73.3161 132.682 74.5507 132.682 76.391V81.3527C132.682 83.193 131.331 84.4276 129.258 84.4276ZM130.097 81.3294C130.097 81.7487 129.794 82.0516 129.258 82.0516H128.07C127.464 82.0516 127.162 81.772 127.162 81.3294V76.3677C127.162 75.995 127.581 75.6223 128.07 75.6223H129.258C129.747 75.6223 130.097 75.9484 130.097 76.3677V81.3294V81.3294ZM149.128 73.5258L152.646 84.1947H150.107L149.687 82.8902L149.245 82.6106H147.195L146.775 82.8902L146.333 84.1947H143.84L147.358 73.5258H149.128V73.5258ZM148.895 80.6073L148.732 80.7704H147.754L147.591 80.6073L147.894 79.2329C148.127 78.1847 148.243 77.0665 148.243 77.0665H148.29C148.29 77.0665 148.406 78.208 148.616 79.2329L148.895 80.6073ZM122.736 73.5258V84.1947H120.36V73.5258H122.736V73.5258ZM161.381 82.0749V84.1947H154.439V73.5258H156.815V81.7487L157.142 82.0749H161.381V82.0749ZM98.7422 73.5258V84.1947H96.7156L93.3845 78.371V84.1947H91.0783V73.5258H93.1515L96.5758 79.5125V73.5258H98.7422V73.5258ZM58.6291 73.5258V81.3527C58.6291 83.193 57.278 84.4276 55.2048 84.4276H54.0167C51.8969 84.4276 50.5692 83.193 50.5692 81.3527V73.5258H52.8753V81.3527C52.8753 81.9584 53.2946 82.3078 54.0167 82.3078H55.2048C55.9036 82.3078 56.2996 81.9351 56.2996 81.3527V73.5258H58.6291ZM82.9252 84.4043H81.7372C79.6174 84.4043 78.2663 83.1697 78.2663 81.3294V76.3677C78.2663 74.5274 79.6407 73.2928 81.7372 73.2928H82.9252C84.9985 73.2928 86.3495 74.5274 86.3495 76.3677V81.3294C86.3495 83.1697 84.9985 84.4043 82.9252 84.4043ZM83.7638 81.3294C83.7638 81.7487 83.461 82.0516 82.9252 82.0516H81.7372C81.1316 82.0516 80.8287 81.772 80.8287 81.3294V76.3677C80.8287 75.995 81.248 75.6223 81.7372 75.6223H82.9252C83.4144 75.6223 83.7638 75.9484 83.7638 76.3677V81.3294ZM65.8038 76.4376C65.4776 75.7853 64.9885 75.4126 64.2896 75.4126H64.0101C63.4044 75.4126 62.9153 75.7387 62.9153 76.4609C62.9153 76.9501 63.288 77.2529 63.6607 77.4392L64.3129 77.6955L64.9652 77.9051C66.8986 78.5341 67.7605 79.3494 67.7605 81.1664C67.7605 83.193 66.5492 84.4043 64.2663 84.4043H63.7306C62.6124 84.4043 61.7272 84.0316 61.075 83.4026L60.4227 82.5407L60.3994 82.4709L62.1698 81.2595C62.5192 81.8885 63.0084 82.2845 63.684 82.2845H64.2197C64.8487 82.2845 65.3146 81.8885 65.3146 81.2363C65.3146 80.7238 65.0118 80.4209 64.6158 80.2113L63.9635 79.9551L63.1715 79.6988C61.3778 79.0699 60.4693 78.3477 60.4693 76.5308C60.4693 74.4808 61.7738 73.2695 63.9868 73.2695H64.243C65.2913 73.2695 66.1532 73.5957 66.7588 74.1547L67.5276 75.1331L67.5742 75.203L65.8038 76.4376ZM48.0999 73.5258V84.1947H45.887V81.9817V78.4875L44.1632 82.8436L44.0933 82.8669H42.4394L42.3695 82.8436L40.669 78.4642V81.9118V84.1714H38.4094V73.5025H40.8321L43.3246 79.7454L45.7006 73.5025L48.0999 73.5258ZM142.536 73.5258V84.1947H140.509L137.178 78.371V84.1947H134.872V73.5258H136.945L140.37 79.5125V73.5258H142.536V73.5258ZM76.7289 82.0749V84.1947H69.7871V73.5258H76.7289V75.6456H72.466L72.1632 75.9251V77.4625L72.4893 77.7188H76.0068V79.8386H72.4893L72.1865 80.0948V81.8186L72.5126 82.0516H76.7289V82.0749Z" fill="black"/>
<path fill-rule="evenodd" clip-rule="evenodd" d="M129.374 87.6422L132.892 98.3111H130.353L129.933 97.0299L129.491 96.7503H127.441L127.022 97.0299L126.579 98.3344H124.087L127.604 87.6655H129.374V87.6422ZM129.141 94.747L128.978 94.9101H128L127.837 94.747L128.14 93.3726C128.373 92.3244 128.489 91.2062 128.489 91.2062H128.536C128.536 91.2062 128.652 92.3477 128.862 93.3726L129.141 94.747ZM141.651 93.955L143.281 98.3111H140.789L139.228 94.2345L138.855 93.955H137.667L137.225 94.3976V98.3111H134.849V87.6422H139.531C141.651 87.6422 142.955 88.8768 142.955 90.9034V91.0665C142.955 92.0914 142.489 92.8602 141.814 93.3028L141.651 93.955ZM140.206 91.0898C140.206 91.5557 139.88 91.7886 139.344 91.7886H137.481L137.271 91.6023V90.2046L137.481 90.0182H139.344C139.903 90.0182 140.206 90.2745 140.206 90.7637V91.0898ZM106.872 95.2362C106.872 95.6089 106.499 95.9583 106.01 95.9583H104.146L103.937 95.772V90.2046L104.146 90.0182H106.01C106.476 90.0182 106.872 90.4142 106.872 90.7637V95.2362ZM101.328 87.6422H106.01C108.13 87.6422 109.434 88.8768 109.434 90.9034V95.0964C109.434 97.0998 108.13 98.3111 106.01 98.3111H101.328V87.6422ZM55.8569 96.1913V98.3111H48.9151V87.6422H55.8569V89.762H51.594L51.2912 90.0415V91.579L51.6173 91.8352H55.1115V93.955H51.594L51.2912 94.2112V95.935L51.6173 96.168H55.8569V96.1913ZM84.6023 93.955L86.2329 98.3111H83.7404L82.1797 94.2345L81.807 93.955H80.5025L80.1764 94.2578V98.3111H77.8003V87.6422H82.4825C84.6023 87.6422 85.9068 88.8768 85.9068 90.9034V91.0665C85.9068 92.0914 85.4409 92.8602 84.7654 93.3028L84.6023 93.955ZM83.3211 91.0898C83.3211 91.5557 82.995 91.7886 82.4592 91.7886H80.3161L80.1065 91.6023V90.2046L80.3161 90.0182H82.4592C83.0183 90.0182 83.3211 90.2745 83.3211 90.7637V91.0898ZM92.6855 98.4508H91.4975C89.3777 98.4508 88.0266 97.2162 88.0266 95.376V90.4142C88.0266 88.574 89.401 87.3394 91.4975 87.3394H92.6855C94.7587 87.3394 96.1098 88.574 96.1098 90.4142V95.376C96.1098 97.2162 94.7587 98.4508 92.6855 98.4508ZM93.5008 95.376C93.5008 95.7953 93.198 96.0981 92.6622 96.0981H91.4742C90.8686 96.0981 90.5657 95.8186 90.5657 95.376V90.4142C90.5657 90.0415 90.985 89.6688 91.4742 89.6688H92.6622C93.1514 89.6688 93.5008 89.9949 93.5008 90.4142V95.376ZM75.6339 87.6422V89.762H73.4909L73.1647 89.9949V98.3111H70.812V90.0182L70.4859 89.762H68.3195V87.6422H75.6339V87.6422ZM43.0915 98.4508H41.9035C39.7837 98.4508 38.4326 97.2162 38.4326 95.376V90.4142C38.4326 88.574 39.807 87.3394 41.9035 87.3394H43.0915C45.1647 87.3394 46.5158 88.574 46.5158 90.4142V91.1364H44.1631V90.4142C44.1631 89.8319 43.6972 89.4359 43.0915 89.4359H41.9035C41.3211 89.4359 40.7621 89.8785 40.7621 90.4142V95.376C40.7621 95.9816 41.2047 96.331 41.9035 96.331H43.0915C43.7205 96.331 44.1631 95.9583 44.1631 95.376V94.6538H46.5158V95.376C46.5158 97.2162 45.1647 98.4508 43.0915 98.4508ZM66.1531 87.6422V98.3111H64.1265L60.7953 92.4874V98.3111H58.4892V87.6422H60.5624L63.9867 93.6289V87.6422H66.1531ZM161.381 96.1913V98.3111H154.439V87.6422H161.381V89.762H157.118L156.815 90.0415V91.579L157.141 91.8352H160.636V93.955H157.118L156.815 94.2112V95.935L157.141 96.168H161.381V96.1913ZM119.055 96.1913V98.3111H112.113V87.6422H119.055V89.762H114.792L114.489 90.0415V91.579L114.815 91.8352H118.286V93.955H114.769L114.466 94.2112V95.935L114.792 96.168H119.055V96.1913ZM151.923 87.6422V89.762H149.78L149.454 89.9949V98.3111H147.101V90.0182L146.775 89.762H144.609V87.6422H151.923V87.6422Z" fill="black"/>
</svg>

<svg width="200" height="200" fill="none" xmlns="http://www.w3.org/2000/svg"><path fill="#fff" d="M0 0h200v200H0z"/><path fill-rule="evenodd" clip-rule="evenodd" d="M33.727 103.017h132.336V68.82H33.727v34.197zm132.336 3.727H33.727v24.529h132.336v-24.529zm-136.04-41.65H169.79v69.883H30.023V65.093z" fill="#000"/><path fill-rule="evenodd" clip-rule="evenodd" d="M114.303 122.258c0-2.772-1.351-3.983-4.216-4.892-1.212-.396-2.703-.745-2.703-1.7 0-.792.49-1.142 1.212-1.142h.419c.815 0 1.444.443 1.887 1.281l.489.07 2.539-1.7.047-.536c-.326-.536-.722-1.048-1.165-1.421-.955-.839-2.236-1.305-3.82-1.305h-.373c-3.354 0-5.358 1.817-5.358 4.892 0 2.749 1.468 3.821 4.077 4.729 1.63.559 2.865.722 2.865 1.817 0 .722-.489 1.141-1.235 1.141h-.768c-.816 0-1.445-.442-1.887-1.281l-.489-.07-2.539 1.701-.047.512c.256.466.582.886.978 1.258.979.955 2.353 1.514 4.03 1.514h.746c3.401 0 5.311-1.817 5.311-4.868zm32.286 4.309v-15.118l-.279-.256h-3.588l-.209.256v15.118l.209.257h3.588l.279-.257zm-5.777-11.95v-3.168l-.233-.256h-10.18l-.209.256v15.118l.209.257h3.611l.256-.257V121l.28-.28h4.938l.233-.209v-3.192l-.233-.233h-4.938l-.28-.279v-1.701l.28-.279h6.01l.256-.21zm15.095 6.849l-.21.21h-1.421l-.233-.21.443-1.934c.349-1.467.512-3.051.512-3.051h.07s.163 1.584.466 3.051l.373 1.934zm5.73 5.031l-5.101-15.118-.21-.163h-2.655l-.257.163-5.124 15.118.233.327h3.773l.21-.163.652-1.864.303-.163h2.935l.326.163.629 1.864.21.163h3.843l.233-.327zm-77.617.024v-15.072l-.233-.256H80.34l-.21.256v4.007c0 2.19.117 4.123.117 4.123h-.07s-.186-.536-.535-1.188l-3.611-6.965-.326-.233h-3.098l-.21.256v15.072l.21.233h3.517l.233-.233v-3.937c0-2.027-.14-3.983-.14-3.983h.094s.186.535.512 1.118l3.634 6.802.28.209h3.051l.233-.209zm-14 0v-15.072l-.28-.256h-3.587l-.21.256v15.072l.21.233h3.587l.28-.233zm54.183-4.03c0 .582-.443 1.001-1.188 1.001h-1.7c-.862 0-1.305-.396-1.305-1.001v-6.942c0-.512.582-1.048 1.305-1.048h1.7c.699 0 1.188.442 1.188 1.048v6.942zm4.053 0v-6.942c0-2.819-2.12-4.636-5.241-4.636h-1.7c-3.122 0-5.288 1.841-5.288 4.636v6.942c0 2.795 2.119 4.635 5.288 4.635h1.7c3.121 0 5.241-1.84 5.241-4.635zm-35.035-1.048l-.21.209h-1.42l-.233-.209.442-1.934c.35-1.444.513-3.028.513-3.028h.07s.163 1.584.466 3.028l.372 1.934zm5.73 5.008l-5.1-15.072-.21-.163h-2.656l-.233.163-5.101 15.072.233.326h3.75l.21-.163.652-1.864.303-.163h2.935l.326.163.629 1.864.21.163h3.82l.233-.326zm-35.36.07v-3.168l-.233-.21h-6.01l-.303-.279v-1.911l.303-.279h4.938l.256-.21v-3.191l-.256-.233h-4.938l-.303-.28v-1.7l.303-.28h6.01l.233-.209v-3.168l-.233-.257H53.2l-.21.257v15.071l.21.233h10.157l.233-.186zm-12.626-.07l-2.4-6.196.117-.536c1.072-.699 1.77-1.887 1.77-3.401v-.233c0-3.028-2.05-4.892-5.24-4.892h-6.803l-.21.256v15.072l.21.233h3.611l.233-.233v-5.568l.303-.279h1.677l.21.163 2.236 5.73.21.163h3.843l.233-.279zm-4.519-10.11c0 .676-.466.978-1.211.978h-2.68l-.302-.279v-1.957l.303-.279h2.655c.816 0 1.212.372 1.212 1.048v.489h.023zm68.556-31.937h-1.188c-2.12 0-3.471-1.234-3.471-3.075v-4.961c0-1.84 1.374-3.075 3.471-3.075h1.188c2.073 0 3.424 1.234 3.424 3.075v.722h-2.353v-.722c0-.583-.466-.979-1.071-.979h-1.188c-.583 0-1.142.443-1.142.979v4.938c0 .606.466.955 1.142.955h1.188c.629 0 1.071-.396 1.071-.955v-.699h2.353v.722c0 1.817-1.351 3.075-3.424 3.075zm-9.318-10.878l3.517 10.669h-2.539l-.419-1.305-.443-.28h-2.049l-.42.28-.442 1.305h-2.493l3.518-10.67h1.77zm-.233 7.081l-.14.163h-1.001l-.163-.163.302-1.374c.233-1.048.35-2.166.35-2.166h.046s.117 1.141.326 2.166l.28 1.374zm23.807 3.82h-1.188c-2.12 0-3.471-1.234-3.471-3.074V76.39c0-1.84 1.374-3.075 3.471-3.075h1.188c2.073 0 3.424 1.235 3.424 3.075v4.962c0 1.84-1.351 3.075-3.424 3.075zm.839-3.098c0 .42-.303.723-.839.723h-1.188c-.606 0-.908-.28-.908-.723v-4.961c0-.373.419-.746.908-.746h1.188c.489 0 .839.326.839.746v4.961zm19.031-7.803l3.518 10.669h-2.539l-.42-1.305-.442-.28h-2.05l-.42.28-.442 1.305h-2.493l3.518-10.67h1.77zm-.233 7.081l-.163.163h-.978l-.163-.163.303-1.374a21.96 21.96 0 00.349-2.166h.047s.116 1.141.326 2.166l.279 1.374zm-26.159-7.081v10.669h-2.376v-10.67h2.376zm38.645 8.549v2.12h-6.942v-10.67h2.376v8.224l.327.326h4.239zm-62.639-8.55v10.67h-2.026l-3.331-5.824v5.824h-2.307v-10.67h2.073l3.425 5.987v-5.986h2.166zm-40.113 0v7.828c0 1.84-1.351 3.075-3.424 3.075h-1.188c-2.12 0-3.448-1.235-3.448-3.075v-7.827h2.306v7.827c0 .605.42.955 1.142.955h1.188c.699 0 1.095-.373 1.095-.955v-7.827h2.33zm24.296 10.88h-1.188c-2.12 0-3.47-1.235-3.47-3.076v-4.961c0-1.84 1.374-3.075 3.47-3.075h1.188c2.074 0 3.425 1.234 3.425 3.075v4.961c0 1.84-1.351 3.075-3.425 3.075zm.839-3.076c0 .42-.303.723-.839.723h-1.188c-.605 0-.908-.28-.908-.723v-4.961c0-.373.419-.746.908-.746h1.188c.49 0 .839.326.839.746v4.961zm-17.96-4.891c-.326-.653-.816-1.025-1.514-1.025h-.28c-.606 0-1.095.326-1.095 1.048 0 .49.373.792.746.978l.652.257.652.21c1.934.628 2.795 1.443 2.795 3.26 0 2.027-1.21 3.238-3.494 3.238h-.535c-1.119 0-2.004-.372-2.656-1.001l-.652-.862-.024-.07 1.77-1.212c.35.63.84 1.025 1.515 1.025h.536c.629 0 1.095-.396 1.095-1.048 0-.512-.303-.815-.7-1.025l-.651-.256-.792-.256c-1.794-.63-2.703-1.351-2.703-3.168 0-2.05 1.305-3.262 3.518-3.262h.256c1.048 0 1.91.327 2.516.886l.769.978.046.07-1.77 1.235zM48.1 73.526v10.669h-2.213v-5.708l-1.724 4.357-.07.023H42.44l-.07-.023-1.7-4.38v5.708h-2.26v-10.67h2.423l2.493 6.243 2.376-6.243 2.399.024zm94.436 0v10.669h-2.027l-3.331-5.824v5.824h-2.306v-10.67h2.073l3.425 5.987v-5.986h2.166zm-65.807 8.549v2.12h-6.942v-10.67h6.942v2.12h-4.263l-.303.28v1.538l.326.256h3.518v2.12h-3.518l-.303.256v1.724l.327.233h4.216v.023zm52.645 5.567l3.518 10.67h-2.539l-.42-1.282-.442-.28h-2.05l-.419.28-.443 1.304h-2.492l3.517-10.669h1.77v-.023zm-.233 7.105l-.163.163H128l-.163-.163.303-1.374c.233-1.049.349-2.167.349-2.167h.047s.116 1.142.326 2.167l.279 1.374zm12.51-.792l1.63 4.356h-2.492l-1.561-4.077-.373-.279h-1.188l-.442.443v3.913h-2.376V87.642h4.682c2.12 0 3.424 1.235 3.424 3.261v.163c0 1.025-.466 1.794-1.141 2.237l-.163.652zm-1.445-2.865c0 .466-.326.699-.862.699h-1.863l-.21-.187v-1.397l.21-.187h1.863c.559 0 .862.257.862.746v.326zm-33.334 4.146c0 .373-.373.722-.862.722h-1.864l-.209-.186v-5.567l.209-.187h1.864c.466 0 .862.396.862.746v4.472zm-5.544-7.594h4.682c2.12 0 3.424 1.235 3.424 3.261v4.193c0 2.004-1.304 3.215-3.424 3.215h-4.682V87.642zm-45.471 8.55v2.12h-6.942v-10.67h6.942v2.12h-4.263l-.303.28v1.537l.326.256h3.495v2.12h-3.518l-.303.256v1.724l.326.233h4.24v.023zm28.745-2.237l1.63 4.356H83.74l-1.56-4.077-.373-.279h-1.305l-.326.303v4.053H77.8V87.642h4.683c2.12 0 3.424 1.235 3.424 3.261v.163c0 1.025-.466 1.794-1.142 2.237l-.163.652zm-1.28-2.865c0 .466-.327.699-.863.699h-2.143l-.21-.187v-1.397l.21-.187h2.143c.56 0 .862.257.862.746v.326zm9.364 7.36h-1.189c-2.12 0-3.47-1.234-3.47-3.074v-4.962c0-1.84 1.374-3.075 3.47-3.075h1.189c2.073 0 3.424 1.235 3.424 3.075v4.962c0 1.84-1.351 3.075-3.424 3.075zm.815-3.074c0 .42-.303.722-.839.722h-1.188c-.605 0-.908-.28-.908-.722v-4.962c0-.373.419-.745.908-.745h1.188c.49 0 .839.326.839.745v4.962zm-17.867-7.734v2.12H73.49l-.326.233v8.316h-2.353v-8.293l-.326-.256H68.32v-2.12h7.314zM43.092 98.451h-1.188c-2.12 0-3.471-1.235-3.471-3.075v-4.962c0-1.84 1.374-3.075 3.47-3.075h1.189c2.073 0 3.424 1.235 3.424 3.075v.722h-2.353v-.722c0-.582-.466-.978-1.071-.978h-1.188c-.583 0-1.142.442-1.142.978v4.962c0 .606.443.955 1.142.955h1.188c.629 0 1.071-.373 1.071-.955v-.722h2.353v.722c0 1.84-1.351 3.075-3.424 3.075zm23.061-10.809v10.67h-2.027l-3.33-5.825v5.824h-2.307V87.642h2.073l3.425 5.987v-5.987h2.166zm95.228 8.55v2.12h-6.942v-10.67h6.942v2.12h-4.263l-.303.28v1.537l.326.256h3.495v2.12h-3.518l-.303.256v1.724l.326.233h4.24v.023zm-42.326 0v2.12h-6.942v-10.67h6.942v2.12h-4.263l-.303.28v1.537l.326.256h3.471v2.12h-3.517l-.303.256v1.724l.326.233h4.263v.023zm32.868-8.55v2.12h-2.143l-.326.233v8.316h-2.353v-8.293l-.326-.256h-2.166v-2.12h7.314z" fill="#000"/></svg>
